brandFactory_export/3.Masa/Lista de proyectos _3Masa.svg

<?xml version="1.0" encoding="UTF-8"?>
<svg width="24px" height="24px" viewBox="0 0 24 24" version="1.1" xmlns="http://www.w3.org/2000/svg" xmlns:xlink="http://www.w3.org/1999/xlink">
    <title>3.Masa/Lista de proyectos _3Masa</title>
    <g id="Symbols" stroke="none" stroke-width="1" fill="none" fill-rule="evenodd">
        <g id="3.Masa/Lista-de-proyectos-_3Masa" fill="#5CB615" fill-rule="nonzero">
            <path d="M17.3966387,12.5781513 L10.7176471,12.5781513 C10.3176471,12.5781513 9.99495798,12.2554622 9.99159664,11.8554622 C9.99159664,11.4588235 10.3176471,11.1327731 10.7176471,11.1327731 L17.3966387,11.1327731 C17.7966387,11.1327731 18.1226891,11.4554622 18.1226891,11.8554622 C18.1226891,12.2521008 17.7966387,12.5781513 17.3966387,12.5781513 M17.3966387,17.3915966 L10.7176471,17.3915966 C10.3176471,17.3915966 9.99495798,17.0689076 9.99159664,16.6689076 C9.99159664,16.2689076 10.3176471,15.9462185 10.7176471,15.9462185 L17.3966387,15.9462185 C17.7966387,15.9462185 18.1226891,16.2689076 18.1226891,16.6689076 C18.1226891,17.0655462 17.7966387,17.3882353 17.3966387,17.3915966 M10.6235294,6.29915966 L17.2991597,6.29915966 C17.6991597,6.29915966 18.0252101,6.62184874 18.0252101,7.02184874 C18.0252101,7.42184874 17.6991597,7.74453782 17.2991597,7.74453782 L10.6235294,7.74453782 C10.2235294,7.74453782 9.90084034,7.42184874 9.89747899,7.02184874 C9.89747899,6.62184874 10.2235294,6.29915966 10.6235294,6.29915966 M7.35294118,12.8201681 C6.82184874,12.8201681 6.38823529,12.389916 6.38823529,11.8554622 C6.38823529,11.3243697 6.82184874,10.8941176 7.35294118,10.8941176 C7.88403361,10.8941176 8.31764706,11.3243697 8.31764706,11.8554622 C8.31764706,12.3865546 7.88739496,12.8201681 7.35294118,12.8201681 M7.35294118,17.6302521 C6.82184874,17.6302521 6.38823529,17.2 6.38823529,16.6689076 C6.38823529,16.1378151 6.82184874,15.707563 7.35294118,15.707563 C7.88403361,15.707563 8.31764706,16.1378151 8.31764706,16.6689076 C8.31764706,17.2 7.88739496,17.6302521 7.35294118,17.6302521 M7.34285714,5.98991597 C7.87394958,5.98991597 8.30756303,6.42016807 8.31092437,6.9512605 C8.31092437,7.48235294 7.87731092,7.91596639 7.34285714,7.91260504 C6.81176471,7.91260504 6.37815126,7.48235294 6.37815126,6.9512605 C6.37815126,6.42016807 6.81176471,5.98991597 7.34285714,5.98991597 M19.0773109,0 L4.69747899,0 C3.82352941,0 3.02689076,0.907563025 3.02689076,1.90588235 L3.02689076,21.7142857 C3.02689076,22.7462185 3.79327731,23.6235294 4.69747899,23.6235294 L19.0739496,23.6268908 C19.9781513,23.6268908 20.7445484,22.7529412 20.7445484,21.7176471 L20.7445484,1.9092437 C20.7478992,0.91092437 19.9512605,0 19.0773109,0" id="Lista-de-proyectos-_3Masa"></path>
        </g>
    </g>
</svg>

<svg width="24" height="24" viewBox="0 0 24 24" xmlns="http://www.w3.org/2000/svg"><path d="M17.397 12.578h-6.68a.727.727 0 01-.725-.723c0-.396.326-.722.726-.722h6.679c.4 0 .726.322.726.722a.727.727 0 01-.726.723m0 4.814h-6.68a.727.727 0 01-.725-.723c0-.4.326-.723.726-.723h6.679c.4 0 .726.323.726.723 0 .397-.326.72-.726.723M10.624 6.299h6.675c.4 0 .726.323.726.723 0 .4-.326.723-.726.723h-6.675a.727.727 0 01-.727-.723c0-.4.327-.723.727-.723M7.353 12.82a.964.964 0 11-.001-1.924.964.964 0 010 1.924m0 4.81a.964.964 0 01-.964-.961.964.964 0 011.93 0c0 .531-.43.961-.965.961m-.01-11.64a.97.97 0 01.968.961.963.963 0 01-.968.962.964.964 0 01-.965-.962c0-.53.434-.961.965-.961M19.077 0H4.697c-.873 0-1.67.908-1.67 1.906v19.808c0 1.032.766 1.91 1.67 1.91l14.377.003c.904 0 1.67-.874 1.67-1.91V1.91C20.749.911 19.952 0 19.078 0" fill="#5CB615" fill-rule="nonzero"/></svg>
